surface rust_noise (
	color Cin=1,
output	color Cout=0
)
{
    float uMult = 5.0;
    float vMult = 5.0;
    color noise_color=abs(0.5*noise("simplex",u*uMult,v*vMult)); 
    // noise_color*=(float)noise("uperlin",u*5,v*5)
    //Cout=Cin;
    float s=u;
    float t=v;
    Cout=(color)texture("rust.tx",s,t);
}

